; generated by Slic3r 1.3.0 on 2020-09-06 at 22:01:34

; external perimeters extrusion width = 0.33mm (1.59mm^3/s)
; perimeters extrusion width = 0.31mm (3.01mm^3/s)
; infill extrusion width = 0.31mm (3.01mm^3/s)
; solid infill extrusion width = 0.31mm (3.01mm^3/s)
; top infill extrusion width = 0.31mm (2.26mm^3/s)

M107
G28 ; home all axes
G1 Z5 F5000 ; lift nozzle

; Filament gcode

G21 ; set units to millimeters
G90 ; use absolute coordinates
M82 ; use absolute distances for extrusion
G92 E0
G1 Z0.100 F3600.000
G1 X47.504 Y32.287 F3600.000
G1 F1800
G1 X49.253 Y30.828 E0.00690
G1 X52.500 Y29.964 E0.01709
G1 X67.500 Y29.964 E0.06255
G1 X69.743 Y30.361 E0.06946
G1 X71.713 Y31.504 E0.07636
G1 X73.172 Y33.253 E0.08326
G1 X74.036 Y36.500 E0.09345
G1 X74.036 Y83.500 E0.23590
G1 X73.639 Y85.743 E0.24281
G1 X72.496 Y87.713 E0.24971
G1 X70.747 Y89.172 E0.25661
G1 X67.500 Y90.036 E0.26680
G1 X52.500 Y90.036 E0.31226
G1 X50.257 Y89.639 E0.31917
G1 X48.287 Y88.496 E0.32607
G1 X46.828 Y86.747 E0.33297
G1 X45.964 Y83.500 E0.34316
G1 X45.964 Y36.500 E0.48561
G1 X46.361 Y34.257 E0.49252
G1 X47.481 Y32.325 E0.49928
G1 X47.681 Y32.354 F3600.000
G1 F1800
G1 X49.423 Y30.937 E0.50609
G1 X52.500 Y30.143 E0.51572
G1 X67.500 Y30.143 E0.56119
G1 X69.711 Y30.540 E0.56800
G1 X71.646 Y31.681 E0.57480
G1 X73.063 Y33.423 E0.58161
G1 X73.857 Y36.500 E0.59124
G1 X73.857 Y83.500 E0.73370
G1 X73.460 Y85.711 E0.74051
G1 X72.319 Y87.646 E0.74732
G1 X70.577 Y89.063 E0.75412
G1 X67.500 Y89.857 E0.76376
G1 X52.500 Y89.857 E0.80922
G1 X50.289 Y89.460 E0.81603
G1 X48.354 Y88.319 E0.82284
G1 X46.937 Y86.577 E0.82965
G1 X46.143 Y83.500 E0.83928
G1 X46.143 Y36.500 E0.98173
G1 X46.540 Y34.289 E0.98854
G1 X47.658 Y32.393 E0.99521
G1 X47.858 Y32.423 F3600.000
G1 F1800
G1 X49.593 Y31.048 E1.00192
G1 X52.500 Y30.321 E1.01101
G1 X67.500 Y30.321 E1.05647
G1 X69.678 Y30.718 E1.06318
G1 X71.577 Y31.858 E1.06989
G1 X72.952 Y33.593 E1.07660
G1 X73.679 Y36.500 E1.08569
G1 X73.679 Y83.500 E1.22814
G1 X73.282 Y85.678 E1.23485
G1 X72.142 Y87.577 E1.24156
G1 X70.407 Y88.952 E1.24828
G1 X67.500 Y89.679 E1.25736
G1 X52.500 Y89.679 E1.30282
G1 X50.322 Y89.282 E1.30953
G1 X48.423 Y88.142 E1.31625
G1 X47.048 Y86.407 E1.32296
G1 X46.321 Y83.500 E1.33204
G1 X46.321 Y36.500 E1.47449
G1 X46.718 Y34.322 E1.48121
G1 X47.834 Y32.462 E1.48778
G1 X64.957 Y63.957 F3600.000
G1 F1800
G1 X64.957 Y36.957 E1.56962
G1 X67.043 Y36.957 E1.57594
G1 X67.043 Y83.043 E1.71563
G1 X52.957 Y83.043 E1.75832
G1 X52.957 Y36.957 E1.89800
G1 X55.043 Y36.957 E1.90433
G1 X55.043 Y63.957 E1.98616
G1 X56.685 Y63.957 E1.99114
G1 X56.810 Y64.094 E1.99170
G1 X57.309 Y64.536 E1.99372
G1 X57.849 Y64.899 E1.99570
G1 X58.152 Y65.058 E1.99673
G1 X58.736 Y65.290 E1.99864
G1 X59.053 Y65.377 E1.99963
G1 X59.375 Y65.439 E2.00063
G1 X60.000 Y65.487 E2.00253
G1 X60.625 Y65.439 E2.00443
G1 X60.947 Y65.377 E2.00542
G1 X61.264 Y65.290 E2.00642
G1 X61.848 Y65.058 E2.00832
G1 X62.151 Y64.899 E2.00936
G1 X62.691 Y64.536 E2.01133
G1 X63.190 Y64.094 E2.01335
G1 X63.315 Y63.957 E2.01391
G1 X64.912 Y63.957 E2.01876
G1 X64.779 Y63.779 F3600.000
G1 F1800
G1 X64.779 Y36.779 E2.10059
G1 X67.221 Y36.779 E2.10800
G1 X67.221 Y83.221 E2.24876
G1 X52.779 Y83.221 E2.29254
G1 X52.779 Y36.779 E2.43331
G1 X55.221 Y36.779 E2.44071
G1 X55.221 Y63.779 E2.52255
G1 X56.764 Y63.779 E2.52723
G1 X56.936 Y63.966 E2.52800
G1 X57.418 Y64.394 E2.52995
G1 X57.941 Y64.745 E2.53186
G1 X58.227 Y64.896 E2.53284
G1 X58.793 Y65.121 E2.53468
G1 X59.094 Y65.203 E2.53563
G1 X59.399 Y65.262 E2.53657
G1 X60.000 Y65.308 E2.53840
G1 X60.601 Y65.262 E2.54023
G1 X60.906 Y65.203 E2.54117
G1 X61.207 Y65.121 E2.54212
G1 X61.773 Y64.896 E2.54396
G1 X62.059 Y64.745 E2.54494
G1 X62.582 Y64.394 E2.54685
G1 X63.064 Y63.966 E2.54880
G1 X63.236 Y63.779 E2.54957
G1 X64.734 Y63.779 E2.55411
G1 X64.600 Y63.600 F3600.000
G1 F1800
G1 X64.600 Y36.600 E2.63595
G1 X67.400 Y36.600 E2.64444
G1 X67.400 Y83.400 E2.78629
G1 X52.600 Y83.400 E2.83115
G1 X52.600 Y36.600 E2.97300
G1 X55.400 Y36.600 E2.98148
G1 X55.400 Y63.600 E3.06332
G1 X56.843 Y63.600 E3.06769
G1 X57.061 Y63.839 E3.06867
G1 X57.527 Y64.253 E3.07056
G1 X58.033 Y64.592 E3.07241
G1 X58.302 Y64.734 E3.07333
G1 X58.849 Y64.951 E3.07511
G1 X59.134 Y65.029 E3.07601
G1 X59.423 Y65.084 E3.07690
G1 X60.000 Y65.129 E3.07866
G1 X60.577 Y65.084 E3.08041
G1 X60.866 Y65.029 E3.08130
G1 X61.151 Y64.951 E3.08220
G1 X61.698 Y64.734 E3.08398
G1 X61.967 Y64.592 E3.08490
G1 X62.473 Y64.253 E3.08675
G1 X62.939 Y63.839 E3.08864
G1 X63.157 Y63.600 E3.08962
G1 X64.555 Y63.600 E3.09386
G1 X64.900 Y63.586 F3600.000
G1 X53.136 Y76.099 F3600.000
G1 F1800
G1 X65.099 Y64.136 E3.14524
G1 X64.846 Y64.136 E3.14601
G1 X53.136 Y75.846 E3.19631
G1 X53.136 Y75.593 E3.19708
G1 X64.593 Y64.136 E3.24629
G1 X64.340 Y64.136 E3.24706
G1 X53.136 Y75.340 E3.29519
G1 X53.136 Y75.087 E3.29596
G1 X64.087 Y64.136 E3.34300
G1 X63.834 Y64.136 E3.34376
G1 X53.136 Y74.834 E3.38972
G1 X53.136 Y74.581 E3.39049
G1 X63.581 Y64.136 E3.43535
G1 X63.393 Y64.136 E3.43592
G1 X62.757 Y64.707 E3.43852
G1 X53.136 Y74.328 E3.47985
G1 X53.136 Y74.075 E3.48062
G1 X62.065 Y65.146 E3.51897
G1 X61.615 Y65.343 E3.52046
G1 X53.136 Y73.822 E3.55688
G1 X53.136 Y73.569 E3.55765
G1 X61.217 Y65.488 E3.59236
G1 X60.880 Y65.571 E3.59341
G1 X53.136 Y73.316 E3.62668
G1 X53.136 Y73.063 E3.62745
G1 X60.577 Y65.622 E3.65941
G1 X60.303 Y65.643 E3.66024
G1 X53.136 Y72.810 E3.69103
G1 X53.136 Y72.557 E3.69180
G1 X60.029 Y65.664 E3.72141
G1 X59.790 Y65.650 E3.72214
G1 X53.136 Y72.304 E3.75072
G1 X53.136 Y72.051 E3.75149
G1 X59.555 Y65.632 E3.77906
G1 X59.323 Y65.611 E3.77977
G1 X53.136 Y71.798 E3.80634
G1 X53.136 Y71.545 E3.80711
G1 X59.111 Y65.570 E3.83278
G1 X58.906 Y65.522 E3.83342
G1 X53.136 Y71.292 E3.85820
G1 X53.136 Y71.039 E3.85897
G1 X58.707 Y65.467 E3.88290
G1 X58.524 Y65.398 E3.88350
G1 X53.136 Y70.786 E3.90664
G1 X53.136 Y70.533 E3.90741
G1 X58.343 Y65.326 E3.92977
G1 X58.161 Y65.254 E3.93037
G1 X53.136 Y70.280 E3.95195
G1 X53.136 Y70.027 E3.95272
G1 X57.989 Y65.174 E3.97357
G1 X57.823 Y65.087 E3.97413
G1 X53.136 Y69.774 E3.99427
G1 X53.136 Y69.521 E3.99504
G1 X57.666 Y64.991 E4.01450
G1 X57.515 Y64.889 E4.01505
G1 X53.136 Y69.268 E4.03386
G1 X53.136 Y69.015 E4.03463
G1 X57.363 Y64.787 E4.05279
G1 X57.212 Y64.686 E4.05334
G1 X53.136 Y68.762 E4.07085
G1 X53.136 Y68.509 E4.07162
G1 X57.076 Y64.568 E4.08854
G1 X56.942 Y64.449 E4.08909
G1 X53.136 Y68.256 E4.10544
G1 X53.136 Y68.003 E4.10621
G1 X56.808 Y64.330 E4.12198
G1 X56.675 Y64.210 E4.12252
G1 X53.136 Y67.750 E4.13773
G1 X53.136 Y67.497 E4.13850
G1 X56.497 Y64.136 E4.15293
G1 X56.244 Y64.136 E4.15370
G1 X53.136 Y67.244 E4.16705
G1 X53.136 Y66.991 E4.16782
G1 X55.991 Y64.136 E4.18009
G1 X55.738 Y64.136 E4.18085
G1 X53.136 Y66.738 E4.19203
G1 X53.136 Y66.485 E4.19280
G1 X55.485 Y64.136 E4.20289
G1 X55.232 Y64.136 E4.20366
G1 X53.136 Y66.232 E4.21266
G1 X53.136 Y65.979 E4.21343
G1 X54.979 Y64.136 E4.22135
G1 X54.864 Y64.136 E4.22170
G1 X54.864 Y63.997 E4.22212
G1 X53.136 Y65.726 E4.22954
G1 X53.136 Y65.473 E4.23031
G1 X54.864 Y63.744 E4.23774
G1 X54.864 Y63.491 E4.23851
G1 X53.136 Y65.220 E4.24593
G1 X53.136 Y64.967 E4.24670
G1 X54.864 Y63.238 E4.25413
G1 X54.864 Y62.985 E4.25490
G1 X53.136 Y64.714 E4.26232
G1 X53.136 Y64.461 E4.26309
G1 X54.864 Y62.732 E4.27052
G1 X54.864 Y62.479 E4.27128
G1 X53.136 Y64.208 E4.27871
G1 X53.136 Y63.955 E4.27948
G1 X54.864 Y62.226 E4.28690
G1 X54.864 Y61.973 E4.28767
G1 X53.136 Y63.702 E4.29510
G1 X53.136 Y63.449 E4.29587
G1 X54.864 Y61.720 E4.30329
G1 X54.864 Y61.467 E4.30406
G1 X53.136 Y63.196 E4.31149
G1 X53.136 Y62.943 E4.31225
G1 X54.864 Y61.214 E4.31968
G1 X54.864 Y60.961 E4.32045
G1 X53.136 Y62.690 E4.32787
G1 X53.136 Y62.437 E4.32864
G1 X54.864 Y60.708 E4.33607
G1 X54.864 Y60.455 E4.33684
G1 X53.136 Y62.184 E4.34426
G1 X53.136 Y61.931 E4.34503
G1 X54.864 Y60.202 E4.35246
G1 X54.864 Y59.949 E4.35323
G1 X53.136 Y61.678 E4.36065
G1 X53.136 Y61.425 E4.36142
G1 X54.864 Y59.696 E4.36885
G1 X54.864 Y59.443 E4.36961
G1 X53.136 Y61.172 E4.37704
G1 X53.136 Y60.919 E4.37781
G1 X54.864 Y59.190 E4.38523
G1 X54.864 Y58.937 E4.38600
G1 X53.136 Y60.666 E4.39343
G1 X53.136 Y60.413 E4.39420
G1 X54.864 Y58.684 E4.40162
G1 X54.864 Y58.431 E4.40239
G1 X53.136 Y60.160 E4.40982
G1 X53.136 Y59.907 E4.41059
G1 X54.864 Y58.178 E4.41801
G1 X54.864 Y57.925 E4.41878
G1 X53.136 Y59.654 E4.42621
G1 X53.136 Y59.401 E4.42697
G1 X54.864 Y57.672 E4.43440
G1 X54.864 Y57.419 E4.43517
G1 X53.136 Y59.148 E4.44259
G1 X53.136 Y58.895 E4.44336
G1 X54.864 Y57.166 E4.45079
G1 X54.864 Y56.913 E4.45156
G1 X53.136 Y58.642 E4.45898
G1 X53.136 Y58.389 E4.45975
G1 X54.864 Y56.660 E4.46718
G1 X54.864 Y56.407 E4.46794
G1 X53.136 Y58.136 E4.47537
G1 X53.136 Y57.883 E4.47614
G1 X54.864 Y56.154 E4.48356
G1 X54.864 Y55.901 E4.48433
G1 X53.136 Y57.630 E4.49176
G1 X53.136 Y57.377 E4.49253
G1 X54.864 Y55.648 E4.49995
G1 X54.864 Y55.395 E4.50072
G1 X53.136 Y57.124 E4.50815
G1 X53.136 Y56.871 E4.50892
G1 X54.864 Y55.142 E4.51634
G1 X54.864 Y54.889 E4.51711
G1 X53.136 Y56.618 E4.52454
G1 X53.136 Y56.365 E4.52530
G1 X54.864 Y54.636 E4.53273
G1 X54.864 Y54.383 E4.53350
G1 X53.136 Y56.112 E4.54092
G1 X53.136 Y55.859 E4.54169
G1 X54.864 Y54.130 E4.54912
G1 X54.864 Y53.877 E4.54989
G1 X53.136 Y55.605 E4.55731
G1 X53.136 Y55.352 E4.55808
G1 X54.864 Y53.624 E4.56551
G1 X54.864 Y53.371 E4.56628
G1 X53.136 Y55.099 E4.57370
G1 X53.136 Y54.846 E4.57447
G1 X54.864 Y53.118 E4.58190
G1 X54.864 Y52.865 E4.58266
G1 X53.136 Y54.593 E4.59009
G1 X53.136 Y54.340 E4.59086
G1 X54.864 Y52.612 E4.59828
G1 X54.864 Y52.359 E4.59905
G1 X53.136 Y54.087 E4.60648
G1 X53.136 Y53.834 E4.60725
G1 X54.864 Y52.106 E4.61467
G1 X54.864 Y51.853 E4.61544
G1 X53.136 Y53.581 E4.62287
G1 X53.136 Y53.328 E4.62363
G1 X54.864 Y51.600 E4.63106
G1 X54.864 Y51.347 E4.63183
G1 X53.136 Y53.075 E4.63925
G1 X53.136 Y52.822 E4.64002
G1 X54.864 Y51.094 E4.64745
G1 X54.864 Y50.841 E4.64822
G1 X53.136 Y52.569 E4.65564
G1 X53.136 Y52.316 E4.65641
G1 X54.864 Y50.588 E4.66384
G1 X54.864 Y50.335 E4.66461
G1 X53.136 Y52.063 E4.67203
G1 X53.136 Y51.810 E4.67280
G1 X54.864 Y50.082 E4.68023
G1 X54.864 Y49.828 E4.68099
G1 X53.136 Y51.557 E4.68842
G1 X53.136 Y51.304 E4.68919
G1 X54.864 Y49.575 E4.69661
G1 X54.864 Y49.322 E4.69738
G1 X53.136 Y51.051 E4.70481
G1 X53.136 Y50.798 E4.70558
G1 X54.864 Y49.069 E4.71300
G1 X54.864 Y48.816 E4.71377
G1 X53.136 Y50.545 E4.72120
G1 X53.136 Y50.292 E4.72197
G1 X54.864 Y48.563 E4.72939
G1 X54.864 Y48.310 E4.73016
G1 X53.136 Y50.039 E4.73759
G1 X53.136 Y49.786 E4.73835
G1 X54.864 Y48.057 E4.74578
G1 X54.864 Y47.804 E4.74655
G1 X53.136 Y49.533 E4.75397
G1 X53.136 Y49.280 E4.75474
G1 X54.864 Y47.551 E4.76217
G1 X54.864 Y47.298 E4.76294
G1 X53.136 Y49.027 E4.77036
G1 X53.136 Y48.774 E4.77113
G1 X54.864 Y47.045 E4.77856
G1 X54.864 Y46.792 E4.77933
G1 X53.136 Y48.521 E4.78675
G1 X53.136 Y48.268 E4.78752
G1 X54.864 Y46.539 E4.79495
G1 X54.864 Y46.286 E4.79571
G1 X53.136 Y48.015 E4.80314
G1 X53.136 Y47.762 E4.80391
G1 X54.864 Y46.033 E4.81133
G1 X54.864 Y45.780 E4.81210
G1 X53.136 Y47.509 E4.81953
G1 X53.136 Y47.256 E4.82030
G1 X54.864 Y45.527 E4.82772
G1 X54.864 Y45.274 E4.82849
G1 X53.136 Y47.003 E4.83592
G1 X53.136 Y46.750 E4.83668
G1 X54.864 Y45.021 E4.84411
G1 X54.864 Y44.768 E4.84488
G1 X53.136 Y46.497 E4.85230
G1 X53.136 Y46.244 E4.85307
G1 X54.864 Y44.515 E4.86050
G1 X54.864 Y44.262 E4.86127
G1 X53.136 Y45.991 E4.86869
G1 X53.136 Y45.738 E4.86946
G1 X54.864 Y44.009 E4.87689
G1 X54.864 Y43.756 E4.87766
G1 X53.136 Y45.485 E4.88508
G1 X53.136 Y45.232 E4.88585
G1 X54.864 Y43.503 E4.89328
G1 X54.864 Y43.250 E4.89404
G1 X53.136 Y44.979 E4.90147
G1 X53.136 Y44.726 E4.90224
G1 X54.864 Y42.997 E4.90966
G1 X54.864 Y42.744 E4.91043
G1 X53.136 Y44.473 E4.91786
G1 X53.136 Y44.220 E4.91863
G1 X54.864 Y42.491 E4.92605
G1 X54.864 Y42.238 E4.92682
G1 X53.136 Y43.967 E4.93425
G1 X53.136 Y43.714 E4.93502
G1 X54.864 Y41.985 E4.94244
G1 X54.864 Y41.732 E4.94321
G1 X53.136 Y43.461 E4.95064
G1 X53.136 Y43.208 E4.95140
G1 X54.864 Y41.479 E4.95883
G1 X54.864 Y41.226 E4.95960
G1 X53.136 Y42.955 E4.96702
G1 X53.136 Y42.702 E4.96779
G1 X54.864 Y40.973 E4.97522
G1 X54.864 Y40.720 E4.97599
G1 X53.136 Y42.449 E4.98341
G1 X53.136 Y42.196 E4.98418
G1 X54.864 Y40.467 E4.99161
G1 X54.864 Y40.214 E4.99237
G1 X53.136 Y41.943 E4.99980
G1 X53.136 Y41.690 E5.00057
G1 X54.864 Y39.961 E5.00799
G1 X54.864 Y39.708 E5.00876
G1 X53.136 Y41.437 E5.01619
G1 X53.136 Y41.184 E5.01696
G1 X54.864 Y39.455 E5.02438
G1 X54.864 Y39.202 E5.02515
G1 X53.136 Y40.931 E5.03258
G1 X53.136 Y40.678 E5.03335
G1 X54.864 Y38.949 E5.04077
G1 X54.864 Y38.696 E5.04154
G1 X53.136 Y40.425 E5.04897
G1 X53.136 Y40.172 E5.04973
G1 X54.864 Y38.443 E5.05716
G1 X54.864 Y38.190 E5.05793
G1 X53.136 Y39.919 E5.06535
G1 X53.136 Y39.666 E5.06612
G1 X54.864 Y37.937 E5.07355
G1 X54.864 Y37.684 E5.07432
G1 X53.136 Y39.413 E5.08174
G1 X53.136 Y39.160 E5.08251
G1 X54.864 Y37.431 E5.08994
G1 X54.864 Y37.178 E5.09071
G1 X53.136 Y38.907 E5.09813
G1 X53.136 Y38.654 E5.09890
G1 X54.654 Y37.136 E5.10542
G1 X54.401 Y37.136 E5.10619
G1 X53.136 Y38.401 E5.11162
G1 X53.136 Y38.148 E5.11239
G1 X54.148 Y37.136 E5.11674
G1 X53.895 Y37.136 E5.11751
G1 X53.136 Y37.895 E5.12077
G1 X53.136 Y37.642 E5.12154
G1 X53.642 Y37.136 E5.12371
G1 X53.389 Y37.136 E5.12448
G1 X53.136 Y37.389 E5.12557
G1 X53.136 Y37.136 E5.12634
G1 X65.280 Y37.136 F3600.000
G1 F1800
G1 X65.136 Y37.136 E5.12678
G1 X65.136 Y37.280 E5.12722
G1 X65.280 Y37.136 E5.12784
G1 X65.533 Y37.136 E5.12861
G1 X65.136 Y37.533 E5.13031
G1 X65.136 Y37.786 E5.13108
G1 X65.786 Y37.136 E5.13388
G1 X66.039 Y37.136 E5.13465
G1 X65.136 Y38.039 E5.13853
G1 X65.136 Y38.292 E5.13930
G1 X66.292 Y37.136 E5.14426
G1 X66.545 Y37.136 E5.14503
G1 X65.136 Y38.545 E5.15109
G1 X65.136 Y38.798 E5.15186
G1 X66.798 Y37.136 E5.15900
G1 X66.864 Y37.136 E5.15920
G1 X66.864 Y37.322 E5.15977
G1 X65.136 Y39.051 E5.16719
G1 X65.136 Y39.304 E5.16796
G1 X66.864 Y37.575 E5.17539
G1 X66.864 Y37.828 E5.17615
G1 X65.136 Y39.557 E5.18358
G1 X65.136 Y39.810 E5.18435
G1 X66.864 Y38.082 E5.19177
G1 X66.864 Y38.335 E5.19254
G1 X65.136 Y40.063 E5.19997
G1 X65.136 Y40.316 E5.20074
G1 X66.864 Y38.588 E5.20816
G1 X66.864 Y38.841 E5.20893
G1 X65.136 Y40.569 E5.21636
G1 X65.136 Y40.822 E5.21713
G1 X66.864 Y39.094 E5.22455
G1 X66.864 Y39.347 E5.22532
G1 X65.136 Y41.075 E5.23275
G1 X65.136 Y41.328 E5.23351
G1 X66.864 Y39.600 E5.24094
G1 X66.864 Y39.853 E5.24171
G1 X65.136 Y41.581 E5.24913
G1 X65.136 Y41.834 E5.24990
G1 X66.864 Y40.106 E5.25733
G1 X66.864 Y40.359 E5.25810
G1 X65.136 Y42.087 E5.26552
G1 X65.136 Y42.340 E5.26629
G1 X66.864 Y40.612 E5.27372
G1 X66.864 Y40.865 E5.27448
G1 X65.136 Y42.593 E5.28191
G1 X65.136 Y42.846 E5.28268
G1 X66.864 Y41.118 E5.29010
G1 X66.864 Y41.371 E5.29087
G1 X65.136 Y43.099 E5.29830
G1 X65.136 Y43.352 E5.29907
G1 X66.864 Y41.624 E5.30649
G1 X66.864 Y41.877 E5.30726
G1 X65.136 Y43.605 E5.31469
G1 X65.136 Y43.859 E5.31546
G1 X66.864 Y42.130 E5.32288
G1 X66.864 Y42.383 E5.32365
G1 X65.136 Y44.112 E5.33108
G1 X65.136 Y44.365 E5.33184
G1 X66.864 Y42.636 E5.33927
G1 X66.864 Y42.889 E5.34004
G1 X65.136 Y44.618 E5.34746
G1 X65.136 Y44.871 E5.34823
G1 X66.864 Y43.142 E5.35566
G1 X66.864 Y43.395 E5.35643
G1 X65.136 Y45.124 E5.36385
G1 X65.136 Y45.377 E5.36462
G1 X66.864 Y43.648 E5.37205
G1 X66.864 Y43.901 E5.37282
G1 X65.136 Y45.630 E5.38024
G1 X65.136 Y45.883 E5.38101
G1 X66.864 Y44.154 E5.38844
G1 X66.864 Y44.407 E5.38920
G1 X65.136 Y46.136 E5.39663
G1 X65.136 Y46.389 E5.39740
G1 X66.864 Y44.660 E5.40482
G1 X66.864 Y44.913 E5.40559
G1 X65.136 Y46.642 E5.41302
G1 X65.136 Y46.895 E5.41379
G1 X66.864 Y45.166 E5.42121
G1 X66.864 Y45.419 E5.42198
G1 X65.136 Y47.148 E5.42941
G1 X65.136 Y47.401 E5.43018
G1 X66.864 Y45.672 E5.43760
G1 X66.864 Y45.925 E5.43837
G1 X65.136 Y47.654 E5.44580
G1 X65.136 Y47.907 E5.44656
G1 X66.864 Y46.178 E5.45399
G1 X66.864 Y46.431 E5.45476
G1 X65.136 Y48.160 E5.46218
G1 X65.136 Y48.413 E5.46295
G1 X66.864 Y46.684 E5.47038
G1 X66.864 Y46.937 E5.47115
G1 X65.136 Y48.666 E5.47857
G1 X65.136 Y48.919 E5.47934
