; generated by Slic3r 1.3.0 on 2021-03-23 at 16:11:19

; external perimeters extrusion width = 0.55mm (1.46mm^3/s)
; perimeters extrusion width = 0.70mm (3.81mm^3/s)
; infill extrusion width = 0.62mm (5.05mm^3/s)
; solid infill extrusion width = 0.70mm (3.81mm^3/s)
; top infill extrusion width = 0.70mm (2.86mm^3/s)

M107
G28 ; home all axes
G1 Z5 F5000 ; lift nozzle

; Filament gcode

G21 ; set units to millimeters
G90 ; use absolute coordinates
M82 ; use absolute distances for extrusion
G92 E0
G1 Z0.350 F3000.000
G1 E-2.00000 F2400.00000
G92 E0
G1 X45.915 Y32.253 F3000.000
G1 E2.00000 F2400.00000
G1 F1200
G1 X47.668 Y30.774 E2.07806
G1 X49.820 Y29.981 E2.15612
G1 X51.000 Y29.875 E2.19643
G1 X69.000 Y29.875 E2.80907
G1 X71.259 Y30.272 E2.88713
G1 X73.247 Y31.415 E2.96519
G1 X74.726 Y33.168 E3.04325
G1 X75.519 Y35.320 E3.12131
G1 X75.625 Y36.500 E3.16162
G1 X75.625 Y83.500 E4.76129
G1 X75.228 Y85.759 E4.83935
G1 X74.085 Y87.747 E4.91740
G1 X72.332 Y89.226 E4.99546
G1 X70.180 Y90.019 E5.07352
G1 X69.000 Y90.125 E5.11384
G1 X51.000 Y90.125 E5.72648
G1 X48.741 Y89.728 E5.80453
G1 X46.753 Y88.585 E5.88259
G1 X45.274 Y86.832 E5.96065
G1 X44.481 Y84.680 E6.03871
G1 X44.375 Y83.500 E6.07903
G1 X44.375 Y36.500 E7.67869
G1 X44.772 Y34.241 E7.75675
G1 X45.878 Y32.318 E7.83226
G1 E5.83226 F2400.00000
G92 E0
G1 X66.150 Y66.350 F3000.000
G1 E2.00000 F2400.00000
G1 F1200
G1 X66.150 Y80.650 E2.48674
G1 X53.850 Y80.650 E2.90540
G1 X53.850 Y66.350 E3.39214
G1 X57.149 Y66.350 E3.50445
G1 X57.305 Y66.488 E3.51153
G1 X57.784 Y66.834 E3.53165
G1 X58.600 Y67.302 E3.56369
G1 X59.452 Y67.642 E3.59489
G1 X60.056 Y67.809 E3.61622
G1 X60.945 Y67.946 E3.64683
G1 X61.500 Y67.968 E3.66574
G1 X62.055 Y67.946 E3.68465
G1 X62.944 Y67.809 E3.71525
G1 X63.548 Y67.642 E3.73658
G1 X64.399 Y67.303 E3.76778
G1 X65.212 Y66.836 E3.79968
G1 X65.694 Y66.488 E3.81991
G1 X65.851 Y66.350 E3.82702
G1 X66.075 Y66.350 E3.83467
G1 E1.83467 F2400.00000
G92 E0
G1 X54.775 Y65.725 F3000.000
G1 E2.00000 F2400.00000
G1 F1200
G1 X57.387 Y65.725 E2.08887
G1 X57.696 Y65.999 E2.10296
G1 X58.124 Y66.308 E2.12091
G1 X58.873 Y66.738 E2.15032
G1 X59.652 Y67.048 E2.17885
G1 X60.188 Y67.197 E2.19779
G1 X61.005 Y67.323 E2.22591
G1 X61.500 Y67.342 E2.24278
G1 X61.995 Y67.323 E2.25966
G1 X62.812 Y67.197 E2.28778
G1 X63.348 Y67.048 E2.30671
G1 X64.127 Y66.738 E2.33524
G1 X64.873 Y66.310 E2.36453
G1 X65.303 Y66.000 E2.38259
G1 X65.613 Y65.725 E2.39670
G1 X66.775 Y65.725 E2.43624
G1 X66.775 Y81.275 E2.96551
G1 X53.225 Y81.275 E3.42672
G1 X53.225 Y38.725 E4.87495
G1 X54.775 Y38.725 E4.92773
G1 X54.775 Y65.650 E5.84413
G1 X55.400 Y65.100 F3000.000
G1 F1200
G1 X57.624 Y65.100 E5.91981
G1 X58.087 Y65.511 E5.94090
G1 X58.463 Y65.782 E5.95667
G1 X59.146 Y66.174 E5.98346
G1 X59.852 Y66.455 E6.00933
G1 X60.320 Y66.585 E6.02586
G1 X61.064 Y66.700 E6.05151
G1 X61.500 Y66.717 E6.06634
G1 X61.936 Y66.700 E6.08118
G1 X62.680 Y66.585 E6.10683
G1 X63.148 Y66.455 E6.12336
G1 X63.854 Y66.174 E6.14922
G1 X64.534 Y65.784 E6.17589
G1 X64.912 Y65.511 E6.19177
G1 X65.376 Y65.100 E6.21288
G1 X67.400 Y65.100 E6.28177
G1 X67.400 Y81.900 E6.85358
G1 X52.600 Y81.900 E7.35732
G1 X52.600 Y38.100 E8.84808
G1 X55.400 Y38.100 E8.94340
G1 X55.400 Y65.025 E9.85980
G1 X56.025 Y64.475 F3000.000
G1 F1200
G1 X57.878 Y64.475 E9.92286
G1 X58.478 Y65.023 E9.95053
G1 X58.803 Y65.257 E9.96413
G1 X59.418 Y65.610 E9.98830
G1 X60.052 Y65.862 E10.01150
G1 X60.451 Y65.973 E10.02562
G1 X61.124 Y66.077 E10.04879
G1 X61.500 Y66.092 E10.06159
G1 X61.876 Y66.077 E10.07439
G1 X62.549 Y65.973 E10.09757
G1 X62.948 Y65.862 E10.11169
G1 X63.582 Y65.610 E10.13489
G1 X64.194 Y65.258 E10.15894
G1 X64.521 Y65.023 E10.17265
G1 X65.122 Y64.475 E10.20032
G1 X66.975 Y64.475 E10.26338
G1 X66.975 Y37.475 E11.18234
G1 X68.025 Y37.475 E11.21809
G1 X68.025 Y82.525 E12.75139
G1 X51.975 Y82.525 E13.29767
G1 X51.975 Y37.475 E14.83097
G1 X56.025 Y37.475 E14.96882
G1 X56.025 Y64.400 E15.88523
G1 X56.650 Y63.850 F3000.000
G1 F1200
G1 X58.158 Y63.850 E15.93656
G1 X58.384 Y64.103 E15.94811
G1 X58.870 Y64.534 E15.97021
G1 X59.142 Y64.731 E15.98164
G1 X59.691 Y65.046 E16.00319
G1 X60.251 Y65.269 E16.02372
G1 X60.583 Y65.361 E16.03544
G1 X61.184 Y65.454 E16.05613
G1 X61.500 Y65.466 E16.06690
G1 X61.816 Y65.454 E16.07766
G1 X62.417 Y65.361 E16.09836
G1 X62.749 Y65.269 E16.11007
G1 X63.309 Y65.046 E16.13061
G1 X63.855 Y64.733 E16.15204
G1 X64.130 Y64.534 E16.16357
G1 X64.616 Y64.103 E16.18568
G1 X64.842 Y63.850 E16.19723
G1 X66.350 Y63.850 E16.24856
G1 X66.350 Y36.850 E17.16752
G1 X68.650 Y36.850 E17.24580
G1 X68.650 Y83.150 E18.82164
G1 X51.350 Y83.150 E19.41046
G1 X51.350 Y36.850 E20.98630
G1 X56.650 Y36.850 E21.16669
G1 X56.650 Y63.775 E22.08309
G1 X56.682 Y64.349 F3000.000
G1 E20.08309 F2400.00000
G92 E0
G1 X54.000 Y66.037 F3000.000
G1 E2.00000 F2400.00000
G1 F1200
G1 X54.000 Y39.037 E3.25099
G1 E1.25099 F2400.00000
G92 E0
G1 X54.000 Y64.500 F3000.000
G1 X56.000 Y68.500 F3000.000
G1 X58.077 Y71.586 F3000.000
G1 X60.000 Y74.001 F3000.000
G1 X62.702 Y71.303 F3000.000
G1 X64.368 Y69.204 F3000.000
G1 X65.937 Y66.563 F3000.000
G1 X67.000 Y65.500 F3000.000
G1 X67.500 Y64.500 F3000.000
G1 X67.500 Y37.787 F3000.000
G1 E2.00000 F2400.00000
G1 F1200
G1 X67.500 Y64.787 E2.51504
G1 E0.51504 F2400.00000
G92 E0
G1 X54.232 Y67.217 F3000.000
G1 E2.00000 F2400.00000
G1 F1200
G1 X54.718 Y66.731 E2.02363
G1 X55.610 Y66.731 E2.05432
G1 X54.231 Y68.110 E2.12136
G1 X54.231 Y69.003 E2.15205
G1 X56.503 Y66.731 E2.26249
G1 X57.155 Y66.731 E2.28492
G1 X57.295 Y66.832 E2.29084
G1 X54.231 Y69.896 E2.43977
G1 X54.231 Y70.788 E2.47046
G1 X57.825 Y67.195 E2.64518
G1 X58.392 Y67.521 E2.66766
G1 X54.231 Y71.681 E2.86993
G1 X54.231 Y72.574 E2.90062
G1 X59.008 Y67.797 E3.13284
G1 X59.495 Y67.992 E3.15090
G1 X59.660 Y68.037 E3.15678
G1 X54.231 Y73.466 E3.42073
G1 X54.231 Y74.359 E3.45142
G1 X60.379 Y68.211 E3.75034
G1 X61.156 Y68.327 E3.77732
G1 X54.231 Y75.252 E4.11398
G1 X54.231 Y76.144 E4.14467
G1 X62.037 Y68.339 E4.52418
G1 X62.358 Y68.326 E4.53523
G1 X63.048 Y68.220 E4.55924
G1 X54.231 Y77.037 E4.98793
G1 X54.231 Y77.930 E5.01862
G1 X64.288 Y67.873 E5.50756
G1 X64.915 Y67.624 E5.53076
G1 X65.769 Y67.133 E5.56461
G1 X65.769 Y67.285 E5.56983
G1 X54.231 Y78.822 E6.13077
G1 X54.231 Y79.715 E6.16146
G1 X65.769 Y68.178 E6.72240
G1 X65.769 Y69.070 E6.75309
G1 X54.570 Y80.269 E7.29755
G1 X55.463 Y80.269 E7.32824
G1 X65.769 Y69.963 E7.82930
G1 X65.769 Y70.856 E7.85999
G1 X56.356 Y80.269 E8.31765
G1 X57.248 Y80.269 E8.34834
G1 X65.769 Y71.748 E8.76259
G1 X65.769 Y72.641 E8.79328
G1 X58.141 Y80.269 E9.16413
G1 X59.034 Y80.269 E9.19482
G1 X65.769 Y73.534 E9.52227
G1 X65.769 Y74.426 E9.55296
G1 X59.926 Y80.269 E9.83701
G1 X60.819 Y80.269 E9.86770
G1 X65.769 Y75.319 E10.10835
G1 X65.769 Y76.212 E10.13904
G1 X61.712 Y80.269 E10.33629
G1 X62.604 Y80.269 E10.36698
G1 X65.769 Y77.104 E10.52082
G1 X65.769 Y77.997 E10.55151
G1 X63.497 Y80.269 E10.66195
G1 X64.390 Y80.269 E10.69264
G1 X65.769 Y78.890 E10.75968
G1 X65.769 Y79.782 E10.79037
G1 X65.282 Y80.269 E10.81401
G1 Z0.650 F3000.000
G1 X54.258 Y66.242 F3000.000
G1 F1200
G1 X56.924 Y66.242 E10.89315
G1 X57.032 Y66.351 E10.89768
G1 X57.741 Y66.902 E10.92434
G1 X58.254 Y67.224 E10.94229
G1 X59.097 Y67.631 E10.97009
G1 X60.034 Y67.925 E10.99923
G1 X60.955 Y68.067 E11.02688
G1 X61.500 Y68.088 E11.04306
G1 X62.045 Y68.067 E11.05924
G1 X62.966 Y67.925 E11.08689
G1 X63.903 Y67.631 E11.11603
G1 X64.746 Y67.224 E11.14383
G1 X65.259 Y66.902 E11.16178
G1 X66.258 Y66.126 E11.19931
G1 X66.258 Y80.758 E11.63349
G1 X53.742 Y80.758 E12.00486
G1 X53.742 Y39.242 E13.23679
G1 X54.258 Y39.242 E13.25207
G1 X54.258 Y66.167 E14.05105
G1 X54.893 Y65.607 F3000.000
G1 F1200
G1 X57.190 Y65.607 E14.11919
G1 X57.454 Y65.874 E14.13036
G1 X58.106 Y66.381 E14.15485
G1 X58.562 Y66.667 E14.17083
G1 X59.332 Y67.039 E14.19619
G1 X60.178 Y67.304 E14.22252
G1 X61.016 Y67.433 E14.24766
G1 X61.500 Y67.452 E14.26204
G1 X61.984 Y67.433 E14.27642
G1 X62.822 Y67.304 E14.30156
G1 X63.668 Y67.039 E14.32789
G1 X64.438 Y66.667 E14.35326
G1 X64.894 Y66.381 E14.36923
G1 X65.546 Y65.874 E14.39373
G1 X65.810 Y65.607 E14.40489
G1 X66.893 Y65.607 E14.43702
G1 X66.893 Y81.393 E14.90547
G1 X53.107 Y81.393 E15.31456
G1 X53.107 Y38.607 E16.58421
G1 X54.893 Y38.607 E16.63722
G1 X54.893 Y65.532 E17.43620
G1 X55.529 Y64.971 F3000.000
G1 F1200
G1 X57.455 Y64.971 E17.49335
G1 X57.877 Y65.398 E17.51115
G1 X58.471 Y65.859 E17.53348
G1 X58.870 Y66.110 E17.54747
G1 X59.566 Y66.446 E17.57041
G1 X60.323 Y66.683 E17.59393
G1 X61.077 Y66.800 E17.61657
G1 X61.500 Y66.816 E17.62914
G1 X61.923 Y66.800 E17.64171
G1 X62.677 Y66.683 E17.66435
G1 X63.434 Y66.446 E17.68787
G1 X64.130 Y66.110 E17.71081
G1 X64.529 Y65.859 E17.72480
G1 X65.123 Y65.398 E17.74712
G1 X65.545 Y64.971 E17.76493
G1 X67.529 Y64.971 E17.82379
G1 X67.529 Y82.029 E18.32996
G1 X52.471 Y82.029 E18.77678
G1 X52.471 Y37.971 E20.08415
G1 X55.529 Y37.971 E20.17488
G1 X55.529 Y64.896 E20.97385
G1 X56.164 Y64.336 F3000.000
G1 F1200
G1 X57.735 Y64.336 E21.02045
G1 X58.299 Y64.921 E21.04459
G1 X58.836 Y65.338 E21.06475
G1 X59.179 Y65.553 E21.07676
G1 X59.801 Y65.854 E21.09727
G1 X60.467 Y66.063 E21.11798
G1 X61.137 Y66.166 E21.13811
G1 X61.500 Y66.180 E21.14887
G1 X61.863 Y66.166 E21.15964
G1 X62.533 Y66.063 E21.17977
G1 X63.199 Y65.854 E21.20048
G1 X63.821 Y65.553 E21.22099
G1 X64.164 Y65.338 E21.23300
G1 X64.701 Y64.921 E21.25316
G1 X65.265 Y64.336 E21.27730
G1 X66.836 Y64.336 E21.32389
G1 X66.836 Y37.336 E22.12510
G1 X68.164 Y37.336 E22.16453
G1 X68.164 Y82.664 E23.50962
G1 X51.836 Y82.664 E23.99416
G1 X51.836 Y37.336 E25.33926
G1 X56.164 Y37.336 E25.46771
G1 X56.164 Y64.261 E26.26669
G1 X56.725 Y63.775 F3000.000
G1 F600
G1 X58.006 Y63.775 E26.29574
G1 X58.213 Y64.037 E26.30331
G1 X58.672 Y64.501 E26.31810
G1 X59.158 Y64.878 E26.33204
G1 X59.451 Y65.062 E26.33988
G1 X60.008 Y65.331 E26.35391
G1 X60.594 Y65.515 E26.36784
G1 X61.191 Y65.607 E26.38153
G1 X61.500 Y65.619 E26.38854
G1 X61.809 Y65.607 E26.39555
G1 X62.406 Y65.515 E26.40924
G1 X62.992 Y65.331 E26.42317
G1 X63.549 Y65.062 E26.43720
G1 X63.842 Y64.878 E26.44504
G1 X64.328 Y64.501 E26.45898
G1 X64.787 Y64.037 E26.47377
G1 X64.994 Y63.775 E26.48134
G1 X66.275 Y63.775 E26.51039
G1 X66.275 Y36.775 E27.12252
G1 X68.725 Y36.775 E27.17806
G1 X68.725 Y83.225 E28.23115
G1 X51.275 Y83.225 E28.62676
G1 X51.275 Y36.775 E29.67985
G1 X56.725 Y36.775 E29.80341
G1 X56.725 Y63.700 E30.41383
G1 X56.758 Y64.274 F3000.000
G1 E28.41383 F2400.00000
G92 E0
G1 X65.869 Y67.672 F3000.000
G1 E2.00000 F2400.00000
G1 F1200
G1 X65.375 Y67.177 E2.02126
G1 X64.809 Y67.532 E2.04156
G1 X65.869 Y68.593 E2.08713
G1 X65.869 Y69.513 E2.11512
G1 X64.188 Y67.833 E2.18737
G1 X63.890 Y67.977 E2.19744
G1 X63.526 Y68.091 E2.20904
G1 X65.869 Y70.434 E2.30977
G1 X65.869 Y71.355 E2.33776
G1 X62.820 Y68.305 E2.46885
G1 X62.022 Y68.429 E2.49339
G1 X65.869 Y72.276 E2.65877
G1 X65.869 Y73.197 E2.68676
G1 X61.145 Y68.473 E2.88983
G1 X60.647 Y68.454 E2.90499
G1 X60.125 Y68.373 E2.92105
G1 X65.869 Y74.117 E3.16798
G1 X65.869 Y75.038 E3.19597
G1 X58.896 Y68.065 E3.49576
G1 X58.615 Y67.977 E3.50468
G1 X57.698 Y67.534 E3.53564
G1 X57.129 Y67.176 E3.55607
G1 X56.937 Y67.027 E3.56348
G1 X65.869 Y75.959 E3.94747
G1 X65.869 Y76.880 E3.97546
G1 X55.620 Y66.631 E4.41605
G1 X54.699 Y66.631 E4.44404
G1 X65.869 Y77.801 E4.92421
G1 X65.869 Y78.721 E4.95220
G1 X54.131 Y66.983 E5.45681
G1 X54.131 Y67.904 E5.48480
G1 X65.869 Y79.642 E5.98941
G1 X65.869 Y80.369 E6.01151
G1 X65.675 Y80.369 E6.01740
G1 X54.131 Y68.825 E6.51368
G1 X54.131 Y69.746 E6.54167
G1 X64.754 Y80.369 E6.99836
G1 X63.834 Y80.369 E7.02635
G1 X54.131 Y70.666 E7.44345
G1 X54.131 Y71.587 E7.47144
G1 X62.913 Y80.369 E7.84896
G1 X61.992 Y80.369 E7.87695
G1 X54.131 Y72.508 E8.21489
G1 X54.131 Y73.429 E8.24288
G1 X61.071 Y80.369 E8.54123
G1 X60.150 Y80.369 E8.56922
G1 X54.131 Y74.350 E8.82798
G1 X54.131 Y75.271 E8.85598
G1 X59.229 Y80.369 E9.07516
G1 X58.309 Y80.369 E9.10315
G1 X54.131 Y76.191 E9.28275
G1 X54.131 Y77.112 E9.31074
G1 X57.388 Y80.369 E9.45075
G1 X56.467 Y80.369 E9.47874
G1 X54.131 Y78.033 E9.57917
G1 X54.131 Y78.954 E9.60716
G1 X55.546 Y80.369 E9.66800
G1 X54.625 Y80.369 E9.69599
G1 X54.131 Y79.875 E9.71725
G1 X67.500 Y64.653 F3000.000
G1 F1200
G1 X67.500 Y37.653 E10.50981
G1 Z0.950 F3000.000
G1 X67.500 Y64.500 F3000.000
G1 X67.000 Y65.500 F3000.000
G1 X65.937 Y66.563 F3000.000
G1 X64.368 Y69.204 F3000.000
G1 X62.702 Y71.303 F3000.000
G1 X60.000 Y74.001 F3000.000
G1 X58.077 Y71.586 F3000.000
G1 X56.000 Y68.500 F3000.000
G1 X54.000 Y64.500 F3000.000
G1 X54.258 Y66.242 F3000.000
G1 F1200
G1 X56.697 Y66.242 E10.58219
G1 X57.407 Y66.873 E10.61038
G1 X58.216 Y67.416 E10.63929
G1 X59.097 Y67.842 E10.66832
G1 X60.034 Y68.135 E10.69746
G1 X60.955 Y68.277 E10.72511
G1 X61.500 Y68.298 E10.74130
G1 X62.045 Y68.277 E10.75748
G1 X62.966 Y68.135 E10.78513
G1 X63.903 Y67.842 E10.81427
G1 X64.784 Y67.416 E10.84330
G1 X65.593 Y66.873 E10.87221
G1 X66.258 Y66.283 E10.89858
G1 X66.258 Y80.758 E11.32809
G1 X53.742 Y80.758 E11.69947
G1 X53.742 Y39.242 E12.93139
G1 X54.258 Y39.242 E12.94668
G1 X54.258 Y66.167 E13.74565
G1 X54.893 Y65.607 F3000.000
G1 F1200
G1 X56.982 Y65.607 E13.80764
G1 X57.133 Y65.780 E13.81444
G1 X57.797 Y66.369 E13.84079
G1 X58.533 Y66.863 E13.86711
G1 X59.332 Y67.249 E13.89342
G1 X60.178 Y67.514 E13.91975
G1 X61.016 Y67.643 E13.94489
G1 X61.500 Y67.662 E13.95927
G1 X61.984 Y67.643 E13.97365
G1 X62.822 Y67.514 E13.99879
G1 X63.668 Y67.249 E14.02512
G1 X64.467 Y66.863 E14.05144
G1 X65.203 Y66.369 E14.07775
G1 X65.867 Y65.780 E14.10410
G1 X66.018 Y65.607 E14.11091
G1 X66.893 Y65.607 E14.13687
G1 X66.893 Y81.393 E14.60532
G1 X53.107 Y81.393 E15.01441
G1 X53.107 Y38.607 E16.28406
G1 X54.893 Y38.607 E16.33707
G1 X54.893 Y65.532 E17.13605
G1 X55.529 Y64.971 F3000.000
G1 F1200
G1 X57.271 Y64.971 E17.18774
G1 X57.585 Y65.331 E17.20191
G1 X58.187 Y65.865 E17.22578
G1 X58.850 Y66.310 E17.24950
G1 X59.566 Y66.656 E17.27310
G1 X60.323 Y66.893 E17.29662
G1 X61.077 Y67.010 E17.31926
G1 X61.500 Y67.026 E17.33183
G1 X61.923 Y67.010 E17.34440
G1 X62.677 Y66.893 E17.36704
G1 X63.434 Y66.656 E17.39056
G1 X64.150 Y66.310 E17.41416
G1 X64.813 Y65.865 E17.43788
G1 X65.415 Y65.331 E17.46175
G1 X65.729 Y64.971 E17.47592
G1 X67.529 Y64.971 E17.52932
G1 X67.529 Y82.029 E18.03549
G1 X52.471 Y82.029 E18.48231
G1 X52.471 Y37.971 E19.78968
G1 X55.529 Y37.971 E19.88041
G1 X55.529 Y64.896 E20.67939
G1 X56.164 Y64.336 F3000.000
G1 F1200
G1 X57.560 Y64.336 E20.72080
G1 X58.037 Y64.883 E20.74234
G1 X58.576 Y65.361 E20.76373
G1 X59.167 Y65.758 E20.78485
G1 X59.801 Y66.064 E20.80574
G1 X60.467 Y66.273 E20.82645
G1 X61.137 Y66.376 E20.84658
G1 X61.500 Y66.390 E20.85734
G1 X61.863 Y66.376 E20.86811
G1 X62.533 Y66.273 E20.88824
G1 X63.199 Y66.064 E20.90895
G1 X63.833 Y65.758 E20.92984
G1 X64.424 Y65.361 E20.95095
G1 X64.963 Y64.883 E20.97235
G1 X65.440 Y64.336 E20.99389
G1 X66.836 Y64.336 E21.03530
G1 X66.836 Y37.336 E21.83650
G1 X68.164 Y37.336 E21.87593
G1 X68.164 Y82.664 E23.22102
G1 X51.836 Y82.664 E23.70557
G1 X51.836 Y37.336 E25.05066
G1 X56.164 Y37.336 E25.17911
G1 X56.164 Y64.261 E25.97809
G1 X56.725 Y63.775 F3000.000
G1 F600
G1 X57.851 Y63.775 E26.00361
G1 X58.003 Y63.991 E26.00960
G1 X58.436 Y64.487 E26.02453
G1 X58.920 Y64.916 E26.03920
G1 X59.447 Y65.270 E26.05359
G1 X60.008 Y65.541 E26.06771
G1 X60.594 Y65.725 E26.08165
G1 X61.191 Y65.817 E26.09534
G1 X61.500 Y65.829 E26.10234
G1 X61.809 Y65.817 E26.10935
G1 X62.406 Y65.725 E26.12304
G1 X62.992 Y65.541 E26.13697
G1 X63.553 Y65.270 E26.15110
G1 X64.080 Y64.916 E26.16548
G1 X64.564 Y64.487 E26.18016
G1 X64.997 Y63.991 E26.19509
G1 X65.149 Y63.775 E26.20107
G1 X66.275 Y63.775 E26.22660
G1 X66.275 Y36.775 E26.83872
G1 X68.725 Y36.775 E26.89427
G1 X68.725 Y83.225 E27.94735
G1 X51.275 Y83.225 E28.34297
G1 X51.275 Y36.775 E29.39605
G1 X56.725 Y36.775 E29.51961
G1 X56.725 Y63.700 E30.13004
G1 X56.758 Y64.274 F3000.000
G1 X54.131 Y67.125 F3000.000
G1 F1200
G1 X54.625 Y66.631 E30.15097
G1 X55.532 Y66.631 E30.17813
G1 X54.131 Y68.032 E30.23747
G1 X54.131 Y68.939 E30.26462
